lib/brands/icons/pwa.svg

<svg xmlns="http://www.w3.org/2000/svg" fill="none" aria-hidden="true" viewBox="0 0 48 48"><g id="pwa-Icon"><g id="Group"><path id="Vector" fill="#3D3D3D" d="M33.439 28.8327L34.5945 25.9106H37.931L36.3476 21.4779L38.3279 16.4699L44 31.53H39.817L38.8478 28.8327H33.439Z"/><path id="Vector_2" fill="#5A0FC8" d="M29.8705 31.5301L35.9426 16.47L31.917 16.47L27.7633 26.2022L24.8096 16.47H21.7153L18.5438 26.2022L16.3072 21.7674L14.2832 28.0031L16.3382 31.5301H20.2999L23.1658 22.8024L25.8983 31.5301H29.8705Z"/><path id="Vector_3" fill="#3D3D3D" d="M7.82123 26.3602H10.3008C11.0519 26.3602 11.7207 26.2763 12.3073 26.1087L12.9485 24.1331L14.7407 18.6117C14.6042 18.3952 14.4483 18.1906 14.273 17.9977C13.3528 16.9792 12.0065 16.4699 10.2341 16.4699H4V31.53H7.82123V26.3602ZM11.1033 19.9347C11.4627 20.2964 11.6424 20.7805 11.6424 21.3869C11.6424 21.998 11.4844 22.4827 11.1683 22.841C10.8218 23.239 10.1837 23.438 9.25418 23.438H7.82123V19.392H9.26471C10.131 19.392 10.7439 19.5729 11.1033 19.9347Z"/></g></g></svg>

<svg xmlns="http://www.w3.org/2000/svg" fill="none" aria-hidden="true" viewBox="0 0 48 48"><path fill="#3D3D3D" d="m33.439 28.833 1.155-2.922h3.337l-1.583-4.433 1.98-5.008L44 31.53h-4.183l-.97-2.697H33.44Z"/><path fill="#5A0FC8" d="m29.87 31.53 6.073-15.06h-4.026l-4.154 9.732-2.953-9.732h-3.095l-3.171 9.732-2.237-4.435-2.024 6.236 2.055 3.527H20.3l2.866-8.728 2.732 8.728h3.973Z"/><path fill="#3D3D3D" d="M7.821 26.36h2.48c.75 0 1.42-.084 2.006-.251l.641-1.976 1.793-5.521a4.405 4.405 0 0 0-.468-.614c-.92-1.019-2.266-1.528-4.039-1.528H4v15.06h3.821v-5.17Zm3.282-6.425c.36.361.54.846.54 1.452 0 .611-.159 1.096-.475 1.454-.346.398-.984.597-1.914.597H7.821v-4.046h1.444c.866 0 1.479.18 1.838.543Z"/></svg>
